Suru++-Ubuntu/apps/symbolic/tali-symbolic.svg

<svg width="16" height="16" version="1.1" viewBox="0 0 16 16" xmlns="http://www.w3.org/2000/svg">
 <path d="m2.6425787 1.2851555a2.1428573 2.1428573 0 0 0-2.142578 2.1425781 2.1428573 2.1428573 0 0 0 2.142578 2.1445313 2.1428573 2.1428573 0 0 0 2.142578-2.1445313 2.1428573 2.1428573 0 0 0-2.142578-2.1425781zm10.714844 0a2.1428573 2.1428573 0 0 0-2.142578 2.1425781 2.1428573 2.1428573 0 0 0 2.142578 2.1445313 2.1428573 2.1428573 0 0 0 2.142578-2.1445313 2.1428573 2.1428573 0 0 0-2.142578-2.1425781zm-5.3144533 4.7246094a2.1428573 2.1428573 0 0 0-2.142578 2.1425777 2.1428573 2.1428573 0 0 0 2.142578 2.1425794 2.1428573 2.1428573 0 0 0 2.1425783-2.1425794 2.1428573 2.1428573 0 0 0-2.1425783-2.1425777zm-5.400391 4.7050781a2.1428573 2.1428573 0 0 0-2.142578 2.142579 2.1428573 2.1428573 0 0 0 2.142578 2.142578 2.1428573 2.1428573 0 0 0 2.142578-2.142578 2.1428573 2.1428573 0 0 0-2.142578-2.142579zm10.714844 0a2.1428573 2.1428573 0 0 0-2.142578 2.142579 2.1428573 2.1428573 0 0 0 2.142578 2.142578 2.1428573 2.1428573 0 0 0 2.142578-2.142578 2.1428573 2.1428573 0 0 0-2.142578-2.142579z" fill="#808080"/>
</svg>

<svg xmlns="http://www.w3.org/2000/svg" width="16" height="16" version="1.1" viewBox="0 0 16 16">
 <path fill="#808080" d="M 2.6425787,1.2851555 A 2.1428573,2.1428573 0 0 0 0.50000065,3.4277336 2.1428573,2.1428573 0 0 0 2.6425787,5.5722649 2.1428573,2.1428573 0 0 0 4.7851567,3.4277336 2.1428573,2.1428573 0 0 0 2.6425787,1.2851555 Z m 10.7148443,0 A 2.1428573,2.1428573 0 0 0 11.214845,3.4277336 2.1428573,2.1428573 0 0 0 13.357423,5.5722649 2.1428573,2.1428573 0 0 0 15.500001,3.4277336 2.1428573,2.1428573 0 0 0 13.357423,1.2851555 Z M 8.0429697,6.0097649 A 2.1428573,2.1428573 0 0 0 5.9003917,8.1523426 2.1428573,2.1428573 0 0 0 8.0429697,10.294922 2.1428573,2.1428573 0 0 0 10.185548,8.1523426 2.1428573,2.1428573 0 0 0 8.0429697,6.0097649 Z M 2.6425787,10.714843 A 2.1428573,2.1428573 0 0 0 0.50000065,12.857422 2.1428573,2.1428573 0 0 0 2.6425787,15 2.1428573,2.1428573 0 0 0 4.7851567,12.857422 2.1428573,2.1428573 0 0 0 2.6425787,10.714843 Z m 10.7148443,0 A 2.1428573,2.1428573 0 0 0 11.214845,12.857422 2.1428573,2.1428573 0 0 0 13.357423,15 2.1428573,2.1428573 0 0 0 15.500001,12.857422 2.1428573,2.1428573 0 0 0 13.357423,10.714843 Z"/>
</svg>
